X:108
T:Richer’s Hornpipe. JJo.108
S:J.Jones MS,1801,N.Shrops.
A:N Shropshire
Z:Neil Brookes 2006
M:4/4
L:1/8
Q:1/2=90
K:Bb
de|fdfdB2cd|cAcAF2 ED|EFGA Bcde|cAFA c2de|!
fdfdB2cd|cAcAF2 ED|E2gg fdec|B2B2B2::!
Bc|dBcAG2 ef|g2c2c2 AB|cABG F2 de|f2B2B2F2|!
GABG FDFD|GABG FDFD|E2g2fdec|B2B2B2:|

